assets/sprite/svg/objects/World_Space_Vuejs.svg

<svg height="165" viewBox="0 0 741 165" width="741" xmlns="http://www.w3.org/2000/svg"><g fill="none"><path d="m40.06 116.6v-15.12h-15.13v-15.13h-15.13v-15.13h-15.13v-60.52h30.26v45.39h15.13v15.13h15.13v-15.13h15.13v-45.39h30.26v60.52h-15.13v15.13h-15.13v15.13h-15.13v15.12z"/><path d="m130.83 116.6v-15.12h-15.12v-90.78h30.29v90.78h45.39v-90.78h30.26v90.78h-15.17v15.12z"/><path d="m236.74 116.6v-105.9h105.9v15.13h-75.64v30.26h60.51v15.13h-60.51v30.26h75.64v15.12z"/><path d="m388 116.6v-30.25h30.26v30.25z"/><path d="m473.93 116.6v-15.12h-15.12v-15.13h30.25v15.13h45.39v-90.78h30.26v90.78h-15.13v15.12z"/><path d="m595 116.6v-15.12h-15.16v-15.13h30.26v15.13h45.38v-30.26h-60.48v-15.13h-15.16v-30.26h15.16v-15.13h75.64v15.13h15.13v15.17h-30.29v-15.17h-45.38v30.26h60.51v15.13h15.13v30.26h-15.13v15.12z"/></g><path d="m57.06 127.6v-15.12h-15.13v-15.13h-15.13v-15.13h-15.13v-60.52h30.26v45.39h15.13v15.13h15.13v-15.13h15.13v-45.39h30.26v60.52h-15.13v15.13h-15.13v15.13h-15.13v15.12z" fill="#687c21"/><path d="m147.83 127.6v-15.12h-15.12v-90.78h30.29v90.78h45.39v-90.78h30.26v90.78h-15.17v15.12z" fill="#687c21"/><path d="m253.74 127.6v-105.9h105.9v15.13h-75.64v30.26h60.51v15.13h-60.51v30.26h75.64v15.12z" fill="#687c21"/><path d="m405 127.6v-30.25h30.26v30.25z" fill="#687c21"/><path d="m490.93 127.6v-15.12h-15.12v-15.13h30.25v15.13h45.39v-90.78h30.26v90.78h-15.13v15.12z" fill="#687c21"/><path d="m612 127.6v-15.12h-15.16v-15.13h30.26v15.13h45.38v-30.26h-60.48v-15.13h-15.16v-30.26h15.16v-15.13h75.64v15.13h15.13v15.17h-30.29v-15.17h-45.38v30.26h60.51v15.13h15.13v30.26h-15.13v15.12z" fill="#687c21"/><path d="m68.06 135.6v-15.12h-15.13v-15.13h-15.13v-15.13h-15.13v-60.52h30.26v45.39h15.13v15.13h15.13v-15.13h15.13v-45.39h30.26v60.52h-15.13v15.13h-15.13v15.13h-15.13v15.12z" fill="#7da820"/><path d="m158.83 135.6v-15.12h-15.12v-90.78h30.29v90.78h45.39v-90.78h30.26v90.78h-15.17v15.12z" fill="#7da820"/><path d="m264.74 135.6v-105.9h105.9v15.13h-75.64v30.26h60.51v15.13h-60.51v30.26h75.64v15.12z" fill="#7da820"/><path d="m416 135.6v-30.25h30.26v30.25z" fill="#7da820"/><path d="m501.93 135.6v-15.12h-15.12v-15.13h30.25v15.13h45.39v-90.78h30.26v90.78h-15.13v15.12z" fill="#7da820"/><path d="m623 135.6v-15.12h-15.16v-15.13h30.26v15.13h45.38v-30.26h-60.48v-15.13h-15.16v-30.26h15.16v-15.13h75.64v15.13h15.13v15.17h-30.29v-15.17h-45.38v30.26h60.51v15.13h15.13v30.26h-15.13v15.12z" fill="#7da820"/><path d="m78.06 145.6v-15.12h-15.13v-15.13h-15.13v-15.13h-15.13v-60.52h30.26v45.39h15.13v15.13h15.13v-15.13h15.13v-45.39h30.26v60.52h-15.13v15.13h-15.13v15.13h-15.13v15.12z" fill="#90d813"/><path d="m168.83 145.6v-15.12h-15.12v-90.78h30.29v90.78h45.39v-90.78h30.26v90.78h-15.17v15.12z" fill="#90d813"/><path d="m274.74 145.6v-105.9h105.9v15.13h-75.64v30.26h60.51v15.13h-60.51v30.26h75.64v15.12z" fill="#90d813"/><path d="m426 145.6v-30.25h30.26v30.25z" fill="#90d813"/><path d="m511.93 145.6v-15.12h-15.12v-15.13h30.25v15.13h45.39v-90.78h30.26v90.78h-15.13v15.12z" fill="#90d813"/><path d="m633 145.6v-15.12h-15.16v-15.13h30.26v15.13h45.38v-30.26h-60.48v-15.13h-15.16v-30.26h15.16v-15.13h75.64v15.13h15.13v15.17h-30.29v-15.17h-45.38v30.26h60.51v15.13h15.13v30.26h-15.13v15.12z" fill="#90d813"/></svg>

<svg xmlns="http://www.w3.org/2000/svg" width="741" height="165" viewBox="0 0 741 165"><title>World_Space</title><g id="Layer_7" data-name="Layer 7"><path d="M40.06,116.6V101.48H24.93V86.35H9.8V71.22H-5.33V10.7H24.93V56.09H40.06V71.22H55.19V56.09H70.32V10.7h30.26V71.22H85.45V86.35H70.32v15.13H55.19V116.6Z" style="fill:none"/><path d="M130.83,116.6V101.48H115.71V10.7H146v90.78h45.39V10.7h30.26v90.78H206.48V116.6Z" style="fill:none"/><path d="M236.74,116.6V10.7h105.9V25.83H267V56.09h60.51V71.22H267v30.26h75.64V116.6Z" style="fill:none"/><path d="M388,116.6V86.35h30.26V116.6Z" style="fill:none"/><path d="M473.93,116.6V101.48H458.81V86.35h30.25v15.13h45.39V10.7h30.26v90.78H549.58V116.6Z" style="fill:none"/><path d="M595,116.6V101.48H579.84V86.35H610.1v15.13h45.38V71.22H595V56.09H579.84V25.83H595V10.7h75.64V25.83h15.13V41H655.48V25.83H610.1V56.09h60.51V71.22h15.13v30.26H670.61V116.6Z" style="fill:none"/><path d="M57.06,127.6V112.48H41.93V97.35H26.8V82.22H11.67V21.7H41.93V67.09H57.06V82.22H72.19V67.09H87.32V21.7h30.26V82.22H102.45V97.35H87.32v15.13H72.19V127.6Z" style="fill:#687c21"/><path d="M147.83,127.6V112.48H132.71V21.7H163v90.78h45.39V21.7h30.26v90.78H223.48V127.6Z" style="fill:#687c21"/><path d="M253.74,127.6V21.7h105.9V36.83H284V67.09h60.51V82.22H284v30.26h75.64V127.6Z" style="fill:#687c21"/><path d="M405,127.6V97.35h30.26V127.6Z" style="fill:#687c21"/><path d="M490.93,127.6V112.48H475.81V97.35h30.25v15.13h45.39V21.7h30.26v90.78H566.58V127.6Z" style="fill:#687c21"/><path d="M612,127.6V112.48H596.84V97.35H627.1v15.13h45.38V82.22H612V67.09H596.84V36.83H612V21.7h75.64V36.83h15.13V52H672.48V36.83H627.1V67.09h60.51V82.22h15.13v30.26H687.61V127.6Z" style="fill:#687c21"/><path d="M68.06,135.6V120.48H52.93V105.35H37.8V90.22H22.67V29.7H52.93V75.09H68.06V90.22H83.19V75.09H98.32V29.7h30.26V90.22H113.45v15.13H98.32v15.13H83.19V135.6Z" style="fill:#7da820"/><path d="M158.83,135.6V120.48H143.71V29.7H174v90.78h45.39V29.7h30.26v90.78H234.48V135.6Z" style="fill:#7da820"/><path d="M264.74,135.6V29.7h105.9V44.83H295V75.09h60.51V90.22H295v30.26h75.64V135.6Z" style="fill:#7da820"/><path d="M416,135.6V105.35h30.26V135.6Z" style="fill:#7da820"/><path d="M501.93,135.6V120.48H486.81V105.35h30.25v15.13h45.39V29.7h30.26v90.78H577.58V135.6Z" style="fill:#7da820"/><path d="M623,135.6V120.48H607.84V105.35H638.1v15.13h45.38V90.22H623V75.09H607.84V44.83H623V29.7h75.64V44.83h15.13V60H683.48V44.83H638.1V75.09h60.51V90.22h15.13v30.26H698.61V135.6Z" style="fill:#7da820"/><path d="M78.06,145.6V130.48H62.93V115.35H47.8V100.22H32.67V39.7H62.93V85.09H78.06v15.13H93.19V85.09h15.13V39.7h30.26v60.52H123.45v15.13H108.32v15.13H93.19V145.6Z" style="fill:#90d813"/><path d="M168.83,145.6V130.48H153.71V39.7H184v90.78h45.39V39.7h30.26v90.78H244.48V145.6Z" style="fill:#90d813"/><path d="M274.74,145.6V39.7h105.9V54.83H305V85.09h60.51v15.13H305v30.26h75.64V145.6Z" style="fill:#90d813"/><path d="M426,145.6V115.35h30.26V145.6Z" style="fill:#90d813"/><path d="M511.93,145.6V130.48H496.81V115.35h30.25v15.13h45.39V39.7h30.26v90.78H587.58V145.6Z" style="fill:#90d813"/><path d="M633,145.6V130.48H617.84V115.35H648.1v15.13h45.38V100.22H633V85.09H617.84V54.83H633V39.7h75.64V54.83h15.13V70H693.48V54.83H648.1V85.09h60.51v15.13h15.13v30.26H708.61V145.6Z" style="fill:#90d813"/></g></svg>
